X: 8
T: Sonny Murray's
Z: Brian Maddison
S: https://thesession.org/tunes/309#setting53866
R: hornpipe
M: 4/4
L: 1/8
K: Dmix
|:F>G| "D" A>BA>F D>EF>G| "D" A>GF>D "C" c2 (3ABc| "D" d>ef>d "C" c>AG>F| "G" D>G (3GFG D>G Gz|
"D" A>BA>F D>EF>G| "D" A>GF>D "C" c2 (3ABc| "D" d>ef>d "Am" c>AA>G| "D" F2 D2 D2:||
|:d>e| "D" f2f>d "C" c>AG>E| "G" D2g2g2 "D" a>f| "D" d2>e2"C" f>de>c| "D" A>dd>c A>d dz|
"C" e>fe>c A>Bc>A| "D7"d>cA>B "C" c2 (3ABc| "D" d>ef>d "Am" c<AA>G| "D" F2 D2 D2:||

%-------------------- TUNE SEPARATOR --------------------%

